SVG_Azure_Grouped/Office365/O365 - PowerPoint.svg

<?xml version="1.0" encoding="UTF-8" standalone="no"?>
<!-- Generated by Microsoft Visio, SVG Export O365 - PowerPoint.svg Page-1 -->

<svg
   xmlns:dc="http://purl.org/dc/elements/1.1/"
   xmlns:cc="http://creativecommons.org/ns#"
   xmlns:rdf="http://www.w3.org/1999/02/22-rdf-syntax-ns#"
   xmlns:svg="http://www.w3.org/2000/svg"
   xmlns="http://www.w3.org/2000/svg"
   xmlns:sodipodi="http://sodipodi.sourceforge.net/DTD/sodipodi-0.dtd"
   xmlns:inkscape="http://www.inkscape.org/namespaces/inkscape"
   width="0.78745389in"
   height="0.78740221in"
   viewBox="0 0 56.696631 56.692899"
   xml:space="preserve"
   class="st9"
   version="1.1"
   id="svg64"
   sodipodi:docname="O365 - PowerPoint.svg"
   style="font-size:12px;overflow:visible;color-interpolation-filters:sRGB;fill:none;fill-rule:evenodd;stroke-linecap:square;stroke-miterlimit:3"
   inkscape:version="0.92.5 (2060ec1f9f, 2020-04-08)"><metadata
   id="metadata70"><rdf:RDF><cc:Work
       rdf:about=""><dc:format>image/svg+xml</dc:format><dc:type
         rdf:resource="http://purl.org/dc/dcmitype/StillImage" /></cc:Work></rdf:RDF></metadata><defs
   id="defs68" /><sodipodi:namedview
   pagecolor="#ffffff"
   bordercolor="#666666"
   borderopacity="1"
   objecttolerance="10"
   gridtolerance="10"
   guidetolerance="10"
   inkscape:pageopacity="0"
   inkscape:pageshadow="2"
   inkscape:window-width="640"
   inkscape:window-height="480"
   id="namedview66"
   showgrid="false"
   inkscape:zoom="1.6264628"
   inkscape:cx="37.795382"
   inkscape:cy="27.196025"
   inkscape:window-x="0"
   inkscape:window-y="0"
   inkscape:window-maximized="0"
   inkscape:current-layer="svg64" />
	<style
   type="text/css"
   id="style2">
	<![CDATA[
		.st1 {fill:#ed6c47;stroke:none;stroke-linecap:butt;stroke-width:18.1165}
		.st2 {fill:#ff8f6b;stroke:none;stroke-linecap:butt;stroke-width:18.1165}
		.st3 {fill:#d35230;stroke:none;stroke-linecap:butt;stroke-width:18.1165}
		.st4 {fill:#000000;fill-opacity:0.098;stroke:none;stroke-linecap:butt;stroke-width:18.1165}
		.st5 {fill:#000000;fill-opacity:0.2;stroke:none;stroke-linecap:butt;stroke-width:18.1165}
		.st6 {fill:#c43e1c;stroke:none;stroke-linecap:butt;stroke-width:18.1165}
		.st7 {fill:#f9f7f7;stroke:none;stroke-linecap:butt;stroke-width:18.1165}
		.st8 {fill:none;stroke:none;stroke-linecap:butt;stroke-width:18.1165}
		.st9 {fill:none;fill-rule:evenodd;font-size:12px;overflow:visible;stroke-linecap:square;stroke-miterlimit:3}
	]]>
	</style>

	<g
   id="g62"
   transform="translate(-18.116485,-18.116601)">
		<title
   id="title4">Page-1</title>
		<g
   id="group20807-1"
   transform="translate(18.1165,-34.0157)">
			<title
   id="title6">O365 - PowerPoint.20807</title>
			<g
   id="group20808-2">
				<title
   id="title8">g22</title>
				<g
   id="shape20809-3"
   transform="translate(7.08661,-21.7258)">
					<title
   id="title10">path2</title>
					<path
   d="M 24.8,77.4 A 24.8758,24.8758 -180 0 0 0,102.2 l 31.42,6.63 z"
   class="st1"
   id="path12"
   inkscape:connector-curvature="0"
   style="fill:#ed6c47;stroke:none;stroke-width:18.11650085;stroke-linecap:butt" />
				</g>
				<g
   id="shape20810-5"
   transform="translate(31.8898,-19.9169)">
					<title
   id="title15">path4</title>
					<path
   d="M 0,75.59 A 24.8758,24.8758 0 0 1 24.8,100.4 L 12.4,108.83 0,100.4 Z"
   class="st2"
   id="path17"
   inkscape:connector-curvature="0"
   style="fill:#ff8f6b;stroke:none;stroke-width:18.11650085;stroke-linecap:butt" />
				</g>
				<g
   id="shape20811-7"
   transform="translate(7.08661,-3.54331)">
					<title
   id="title20">path6</title>
					<path
   d="M 24.8,108.83 A 24.8758,24.8758 -180 0 0 49.61,84.02 H 0 a 24.8758,24.8758 -180 0 0 24.8,24.81 z"
   class="st3"
   id="path22"
   inkscape:connector-curvature="0"
   style="fill:#d35230;stroke:none;stroke-width:18.11650085;stroke-linecap:butt" />
				</g>
				<g
   id="shape20812-9"
   transform="translate(7.11663,-10.6299)">
					<title
   id="title25">path8</title>
					<path
   d="M 22.41,75.16 H 5.83 a 24.6508,24.6508 -180 0 0 1.64,33.67 h 14.94 a 2.3687,2.3687 -180 0 0 2.36,-2.37 V 77.53 a 2.3687,2.3687 -180 0 0 -2.36,-2.37 z"
   class="st4"
   id="path27"
   inkscape:connector-curvature="0"
   style="fill:#000000;fill-opacity:0.09800002;stroke:none;stroke-width:18.11650085;stroke-linecap:butt" />
				</g>
				<g
   id="shape20813-11"
   transform="translate(7.3594,-8.85827)">
					<title
   id="title30">path10</title>
					<path
   d="M 20.4,75.16 H 4.23 a 24.6366,24.6366 -180 0 0 5.04,33.67 H 20.4 a 2.3687,2.3687 -180 0 0 2.36,-2.37 V 77.53 A 2.3687,2.3687 -180 0 0 20.4,75.16 Z"
   class="st5"
   id="path32"
   inkscape:connector-curvature="0"
   style="fill:#000000;fill-opacity:0.2;stroke:none;stroke-width:18.11650085;stroke-linecap:butt" />
				</g>
				<g
   id="shape20814-13"
   transform="translate(7.11286,-12.4016)">
					<title
   id="title35">path12</title>
					<path
   d="M 20.64,78.71 H 4.47 a 24.6083,24.6083 -180 0 0 1.36,30.12 h 14.81 a 2.3687,2.3687 -180 0 0 2.37,-2.37 V 81.07 a 2.3687,2.3687 -180 0 0 -2.37,-2.36 z"
   class="st5"
   id="path37"
   inkscape:connector-curvature="0"
   style="fill:#000000;fill-opacity:0.2;stroke:none;stroke-width:18.11650085;stroke-linecap:butt" />
				</g>
				<g
   id="shape20815-15"
   transform="translate(7.11286,-12.4016)">
					<title
   id="title40">path14</title>
					<path
   d="M 18.87,78.71 H 4.47 a 24.6083,24.6083 -180 0 0 1.36,30.12 h 13.04 a 2.3687,2.3687 -180 0 0 2.36,-2.37 V 81.07 a 2.3687,2.3687 -180 0 0 -2.36,-2.36 z"
   class="st5"
   id="path42"
   inkscape:connector-curvature="0"
   style="fill:#000000;fill-opacity:0.2;stroke:none;stroke-width:18.11650085;stroke-linecap:butt" />
				</g>
				<g
   id="shape20816-17"
   transform="translate(0,-14.1732)">
					<title
   id="title45">path16</title>
					<path
   d="m 2.36,80.48 h 23.62 a 2.36161,2.36161 0 0 1 2.37,2.36 v 23.62 a 2.36161,2.36161 0 0 1 -2.37,2.37 H 2.36 A 2.36161,2.36161 0 0 1 0,106.46 V 82.84 a 2.36161,2.36161 0 0 1 2.36,-2.36 z"
   class="st6"
   id="path47"
   inkscape:connector-curvature="0"
   style="fill:#c43e1c;stroke:none;stroke-width:18.11650085;stroke-linecap:butt" />
				</g>
				<g
   id="shape20817-19"
   transform="translate(7.08661,-19.4882)">
					<title
   id="title50">path18</title>
					<path
   d="m 7.08,91.11 a 7.38425,7.38425 0 0 1 4.88,1.42 5.09882,5.09882 0 0 1 1.7,4.13 4.82953,4.82953 0 0 1 -0.84,2.82 5.60551,5.60551 0 0 1 -2.38,2.1 8.09646,8.09646 0 0 1 -3.58,0.75 H 3.47 v 6.5 H 0 V 91.11 Z m -3.61,8.3 H 6.46 A 3.88701,3.88701 -180 0 0 9.1,98.62 1.96122,1.96122 -180 0 0 10,96.8 C 10,94.84 8.86,93.86 6.57,93.86 h -3.1 z"
   class="st7"
   id="path52"
   inkscape:connector-curvature="0"
   style="fill:#f9f7f7;stroke:none;stroke-width:18.11650085;stroke-linecap:butt" />
				</g>
				<g
   id="shape20818-21">
					<title
   id="title55">path20</title>
					<rect
   x="0"
   y="52.132301"
   width="56.692902"
   height="56.692902"
   class="st8"
   id="rect57"
   style="fill:none;stroke:none;stroke-width:18.11650085;stroke-linecap:butt" />
				</g>
			</g>
		</g>
	</g>
</svg>

<?xml version="1.0" encoding="UTF-8" standalone="no"?>
<!DOCTYPE svg PUBLIC "-//W3C//DTD SVG 1.1//EN" "http://www.w3.org/Graphics/SVG/1.1/DTD/svg11.dtd">
<!-- Generated by Microsoft Visio, SVG Export O365 - PowerPoint.svg Page-1 -->
<svg xmlns="http://www.w3.org/2000/svg" xmlns:xlink="http://www.w3.org/1999/xlink" xmlns:ev="http://www.w3.org/2001/xml-events"
		width="1.29064in" height="1.51146in" viewBox="0 0 92.926 108.825" xml:space="preserve" color-interpolation-filters="sRGB"
		class="st9">
	<style type="text/css">
	<![CDATA[
		.st1 {fill:#ed6c47;stroke:none;stroke-linecap:butt;stroke-width:18.1165}
		.st2 {fill:#ff8f6b;stroke:none;stroke-linecap:butt;stroke-width:18.1165}
		.st3 {fill:#d35230;stroke:none;stroke-linecap:butt;stroke-width:18.1165}
		.st4 {fill:#000000;fill-opacity:0.098;stroke:none;stroke-linecap:butt;stroke-width:18.1165}
		.st5 {fill:#000000;fill-opacity:0.2;stroke:none;stroke-linecap:butt;stroke-width:18.1165}
		.st6 {fill:#c43e1c;stroke:none;stroke-linecap:butt;stroke-width:18.1165}
		.st7 {fill:#f9f7f7;stroke:none;stroke-linecap:butt;stroke-width:18.1165}
		.st8 {fill:none;stroke:none;stroke-linecap:butt;stroke-width:18.1165}
		.st9 {fill:none;fill-rule:evenodd;font-size:12px;overflow:visible;stroke-linecap:square;stroke-miterlimit:3}
	]]>
	</style>

	<g>
		<title>Page-1</title>
		<g id="group20341-1" transform="translate(18.1165,-34.0157)">
			<title>O365 - PowerPoint.20341</title>
			<g id="group20342-2">
				<title>g22</title>
				<g id="shape20343-3" transform="translate(7.08661,-21.7258)">
					<title>path2</title>
					<path d="M24.8 77.4 A24.8758 24.8758 -180 0 0 -0 102.2 L31.42 108.83 L24.8 77.4 Z" class="st1"/>
				</g>
				<g id="shape20344-5" transform="translate(31.8898,-19.9169)">
					<title>path4</title>
					<path d="M-0 75.59 A24.8758 24.8758 0 0 1 24.8 100.4 L12.4 108.83 L0 100.4 L0 75.59 Z" class="st2"/>
				</g>
				<g id="shape20345-7" transform="translate(7.08661,-3.54331)">
					<title>path6</title>
					<path d="M24.8 108.83 A24.8758 24.8758 -180 0 0 49.61 84.02 L0 84.02 A24.8758 24.8758 -180 0 0 24.8 108.83 Z"
							class="st3"/>
				</g>
				<g id="shape20346-9" transform="translate(7.11663,-10.6299)">
					<title>path8</title>
					<path d="M22.41 75.16 L5.83 75.16 A24.6508 24.6508 -180 0 0 7.47 108.83 L22.41 108.83 A2.3687 2.3687 -180 0 0
								 24.77 106.46 L24.77 77.53 A2.3687 2.3687 -180 0 0 22.41 75.16 Z" class="st4"/>
				</g>
				<g id="shape20347-11" transform="translate(7.3594,-8.85827)">
					<title>path10</title>
					<path d="M20.4 75.16 L4.23 75.16 A24.6366 24.6366 -180 0 0 9.27 108.83 L20.4 108.83 A2.3687 2.3687 -180 0 0 22.76
								 106.46 L22.76 77.53 A2.3687 2.3687 -180 0 0 20.4 75.16 Z" class="st5"/>
				</g>
				<g id="shape20348-13" transform="translate(7.11286,-12.4016)">
					<title>path12</title>
					<path d="M20.64 78.71 L4.47 78.71 A24.6083 24.6083 -180 0 0 5.83 108.83 L20.64 108.83 A2.3687 2.3687 -180 0 0
								 23.01 106.46 L23.01 81.07 A2.3687 2.3687 -180 0 0 20.64 78.71 Z" class="st5"/>
				</g>
				<g id="shape20349-15" transform="translate(7.11286,-12.4016)">
					<title>path14</title>
					<path d="M18.87 78.71 L4.47 78.71 A24.6083 24.6083 -180 0 0 5.83 108.83 L18.87 108.83 A2.3687 2.3687 -180 0 0
								 21.23 106.46 L21.23 81.07 A2.3687 2.3687 -180 0 0 18.87 78.71 Z" class="st5"/>
				</g>
				<g id="shape20350-17" transform="translate(0,-14.1732)">
					<title>path16</title>
					<path d="M2.36 80.48 L25.98 80.48 A2.36161 2.36161 0 0 1 28.35 82.84 L28.35 106.46 A2.36161 2.36161 0 0 1 25.98
								 108.83 L2.36 108.83 A2.36161 2.36161 0 0 1 0 106.46 L0 82.84 A2.36161 2.36161 0 0 1 2.36 80.48 Z"
							class="st6"/>
				</g>
				<g id="shape20351-19" transform="translate(7.08661,-19.4882)">
					<title>path18</title>
					<path d="M7.08 91.11 A7.38425 7.38425 0 0 1 11.96 92.53 A5.09882 5.09882 0 0 1 13.66 96.66 A4.82953 4.82953 0
								 0 1 12.82 99.48 A5.60551 5.60551 0 0 1 10.44 101.58 A8.09646 8.09646 0 0 1 6.86 102.33 L3.47 102.33
								 L3.47 108.83 L0 108.83 L0 91.11 L7.08 91.11 ZM3.47 99.41 L6.46 99.41 A3.88701 3.88701 -180 0 0 9.1
								 98.62 A1.96122 1.96122 -180 0 0 10 96.8 C10 94.84 8.86 93.86 6.57 93.86 L3.47 93.86 L3.47 99.41
								 Z" class="st7"/>
				</g>
				<g id="shape20352-21">
					<title>path20</title>
					<rect x="0" y="52.1323" width="56.6929" height="56.6929" class="st8"/>
				</g>
			</g>
		</g>
	</g>
</svg>
